X: 19246
T: Italian Rant
R: reel
M: 4/4
K: Gminor
|:GABc d2d2|e2dc d4|c2cd B2Bc|AGAB G4:|
|:g2 gg f2 ff|=ed=ef d4|d_efd e2 d2|c2 cd B4|BcdB c2 A2|
ABcA B2 A2|GABc d2d2|e2dc d4|c2cd B2Bc|AGAB G4:|

